icons/pencil-16.svg

<svg width="16" height="16" viewBox="0 0 16 16" xmlns="http://www.w3.org/2000/svg">
  <path fill-rule="evenodd" clip-rule="evenodd" d="M11.0126 1.42678C11.696 0.74336 12.804 0.743362 13.4874 1.42678L14.5732 2.51257C15.2566 3.19598 15.2566 4.30402 14.5732 4.98744L5.96355 13.5971C5.75325 13.8074 5.49283 13.9606 5.20687 14.0423L1.95603 14.9711C1.69413 15.046 1.41226 14.9729 1.21966 14.7803C1.02706 14.5877 0.954017 14.3059 1.02884 14.044L1.95766 10.7931C2.03936 10.5072 2.19259 10.2467 2.40289 10.0364L11.0126 1.42678ZM12.4268 2.48744C12.3291 2.38981 12.1708 2.38981 12.0732 2.48744L10.8106 3.75L12.25 5.18934L13.5126 3.92678C13.6102 3.82915 13.6102 3.67086 13.5126 3.57323L12.4268 2.48744ZM11.1893 6.25L9.74999 4.81066L3.46355 11.0971C3.43351 11.1271 3.41162 11.1643 3.39994 11.2052L2.842 13.158L4.79479 12.6C4.83564 12.5884 4.87284 12.5665 4.90289 12.5364L11.1893 6.25Z"/>
</svg>

<svg xmlns="http://www.w3.org/2000/svg" width="16" height="16" viewBox="0 0 16 16"><path fill-rule="evenodd" d="M11.013 1.427a1.75 1.75 0 012.474 0l1.086 1.086a1.75 1.75 0 010 2.474l-8.61 8.61c-.21.21-.47.364-.756.445l-3.251.93a.75.75 0 01-.927-.928l.929-3.25a1.75 1.75 0 01.445-.758l8.61-8.61zm1.414 1.06a.25.25 0 00-.354 0L10.811 3.75l1.439 1.44 1.263-1.263a.25.25 0 000-.354l-1.086-1.086zM11.189 6.25L9.75 4.81l-6.286 6.287a.25.25 0 00-.064.108l-.558 1.953 1.953-.558a.249.249 0 00.108-.064l6.286-6.286z"/></svg>
